!!!COM: Gesualdo, Carlo
!!!CDT:
!!!PTL: Il secondo libro de madrigali a cinque voci
!!!PPP: Ferrara
!!!PPR: Baldini
!!!PDT: 1594 
!!!PUB-format:
!!!RISM: G 1725
!!!rime: 47
!!!OTL: Non è questa la mano
!!!AGN: Madrigal
!!!SCT: Trm0047q
!!!SCA: Trm0047q
!!!original-voices: 5
!!!extant-voices: 5
!!!complete: Y
!!!final: (D)A
**kern	**text	**kern	**text	**kern	**text	**kern	**text	**kern	**text
*part5	*part5	*part4	*part4	*part3	*part3	*part2	*part2	*part1	*part1
*staff5	*staff5	*staff4	*staff4	*staff3	*staff3	*staff2	*staff2	*staff1	*staff1
*I"Basso	*	*I"Tenore	*	*I"Alto	*	*I"Quinto	*	*I"Canto	*
*I'B	*	*I'T	*	*I'A	*	*I'V	*	*I'C	*
*oclefF3	*	*oclefC3	*	*oclefC2	*	*oclefC1	*	*oclefG2	*
*clefF4	*	*clefGv2	*	*clefG2	*	*clefG2	*	*clefG2	*
*k[]	*	*k[]	*	*k[]	*	*k[]	*	*k[]	*
*omet(C)	*	*omet(C)	*	*omet(C)	*	*omet(C)	*	*omet(C)	*
*M4/2	*	*M4/2	*	*M4/2	*	*M4/2	*	*M4/2	*
=1	=1	=1	=1	=1	=1	=1	=1	=1	=1
!!LO:TX:a:t=Prima parte.
1r	.	2e	Non	2g#X	Non	2b	Non	2ee	Non
.	.	2d	è,	2a	è,	2dd	è,	2ff#X	è,
2r	.	2r	.	2r	.	2r	.	2r	.
2B	Non	2d	Non	2f#X	Non	2dd	Non	2ff#X	Non
=2	=2	=2	=2	=2	=2	=2	=2	=2	=2
2A	è	2a	è	2a	è	2cc#X	è	2ff#i	è
2.G	que-	2.d	que-	2.b	que-	2.dd	que-	2.gg	que-
4G	-sta	4B	-sta	4b	-sta	4dd	-sta	4dd	-sta
2E	la	2e	la	2g	la	2cc#X	la	2ee	la
=3	=3	=3	=3	=3	=3	=3	=3	=3	=3
2D	ma-	2A	ma-	2a	ma-	2dd	ma-	2ff#X	ma-
2D	-no	2A	-no	4a	-no	2dd	-no	2ff#i	-no
.	.	.	.	4d	Che	.	.	.	.
8r	.	8r	.	8d	tan-	2r	.	1r	.
8G	Che	8B	Che	8e	-t’e	.	.	.	.
8G	tan-	8B	tan-	8d	sì	.	.	.	.
8A	-t’e	8c	-t’e	8c	mor-	.	.	.	.
8G	sì	8B	sì	4d	-ta-	4r	.	.	.
8F	mor-	8A	mor-	.	.	.	.	.	.
[4G	-ta-	8BL	-ta-	4B	-le	8dd	A-	.	.
.	.	8cJ	.	.	.	8cc	-ven-	.	.
=4	=4	=4	=4	=4	=4	=4	=4	=4	=4
4G]	.	8d	.	8g	A-	4b	-tò	2r	.
.	.	8d	-le	8f	-ven-	.	.	.	.
4C	-le	8g	A-	4e	-tò	8e	nel	.	.
.	.	8f	-ven-	.	.	8f	mio	.	.
8E	A-	2e	-tò	8e	nel	4g	cor	8gg	A-
8D	-ven-	.	.	8f	mio	.	.	8ff	-ven-
2C	-tò	.	.	2g	cor	4cc	fiam-	2ee	-tò
.	.	2r	.	.	.	4cc	-mel-	.	.
8G	nel	.	.	4g	fiam-	4b	-l’e	8dd	nel
8E	mio	.	.	.	.	.	.	8cc	mio
4G	cor	8d	nel	4g	-mel-	[2b	stra-	4b	cor
.	.	8B	mio	.	.	.	.	.	.
4D	fiam-	8d	cor	4f	-l’e	.	.	4a	fiam-
.	.	8c	fiam-	.	.	.	.	.	.
=5	=5	=5	=5	=5	=5	=5	=5	=5	=5
4E	-mel-	4B	-mel-	1e	stra-	4b]	.	4g#X	-mel-
4C#X	-l’e	4E	-l’e	.	.	2a	.	4a	-l’e
2E	stra-	2B	stra-	.	.	.	.	2b	stra-
.	.	.	.	.	.	4g#X	.	.	.
2A	-li?	2A	-li?	2e	-li?	2a	-li?	2cc#X	-li?
2r	.	2r	.	2r	.	2r	.	2r	.
=6	=6	=6	=6	=6	=6	=6	=6	=6	=6
2D	Ec-	2d	Ec-	2f#X	Ec-	2a	Ec-	2dd	Ec-
2D	-co	2d	-co	2f#i	-co	2a	-co	2dd	-co
4r	.	4r	.	4r	.	4r	.	4r	.
4C	che	4G	che	4g	che	4cc	che	4ee	che
2F	pur,	2A	pur,	2fnXi	pur,	2cc	pur,	2ff	pur,
=7	=7	=7	=7	=7	=7	=7	=7	=7	=7
4r	.	4r	.	4r	.	4r	.	4r	.
4A	che	4c	che	4e	che	4a	che	4ee	che
4D	pur	4A	pur	4.d	pur	4.a	pur	4ff	pur
4F	si	4A	si	.	.	.	.	4dd	si
.	.	.	.	8A	si	8a	si	.	.
2E	tro-	2B	tro-	2e	tro-	2g#X	tro-	2ee	tro-
2E	-va	2B	-va	2e	-va	2g#i	-va	2ee	-va
=8	=8	=8	=8	=8	=8	=8	=8	=8	=8
2r	.	8r	.	1r	.	2r	.	8r	.
.	.	8B	Nel-	.	.	.	.	8dd	Nel-
.	.	8B	-le	.	.	.	.	8dd	-le
.	.	8B	mie	.	.	.	.	8dd	mie
8r	.	2c	man	.	.	8r	.	2ee	man
8E	Nel-	.	.	.	.	8g	Nel-	.	.
8E	-le	.	.	.	.	8g	-le	.	.
8E	mie	.	.	.	.	8g	mie	.	.
4F	man	4A	ri-	8r	.	4a	man	4cc	ri-
.	.	.	.	8f	Nel-	.	.	.	.
4D	ri-	2B	-stret-	8f	-le	4f	ri-	2dd	-stret-
.	.	.	.	8f	mie	.	.	.	.
2E	-stret-	.	.	4g	man	8eL	-stret-	.	.
.	.	.	.	.	.	8fJ	.	.	.
.	.	8AL	.	4e	ri-	[4g	.	4cc#X	.
.	.	8GJ	.	.	.	.	.	.	.
=9	=9	=9	=9	=9	=9	=9	=9	=9	=9
2D	-ta,	2A	.	2a	-stret-	4g]	.	1dd	-ta,
.	.	.	.	.	.	4f#X	.	.	.
2r	.	2G	-ta,	2b	-ta,	2g	-ta,	.	.
2r	.	2r	.	4r	.	1r	.	1r	.
.	.	.	.	4g	Né	.	.	.	.
4c	Né	4e	Né	4g	for-	.	.	.	.
4c	for-	4e	for-	4a	-z’o	.	.	.	.
=10	=10	=10	=10	=10	=10	=10	=10	=10	=10
4d	-z’o	4f	-z’o	4a	ar-	0r	.	0r	.
4d	ar-	4f	ar-	4f	-te	.	.	.	.
4B-X	-te	4d	-te	8f	per	.	.	.	.
.	.	.	.	8d	fug-	.	.	.	.
4.B-i	per	8d	per	4.f	-gir	.	.	.	.
.	.	8c	fug-	.	.	.	.	.	.
.	.	4.d	-gir	.	.	.	.	.	.
8A	fug-	.	.	8d	li	.	.	.	.
8B-i	-gir	.	.	2g	gio-	.	.	.	.
8G	li	8B	li	.	.	.	.	.	.
2A	gio-	2c	gio-	.	.	.	.	.	.
.	.	.	.	4f#X	.	.	.	.	.
=11	=11	=11	=11	=11	=11	=11	=11	=11	=11
2G	-va,	2B	-va,	2g	-va,	2r	.	4r	.
.	.	.	.	.	.	.	.	4dd	Né
2r	.	4g	Né	2r	.	4b	Né	4dd	for-
.	.	4g	for-	.	.	4b	for-	4ee	-z’o
1r	.	4a	-z’o	1r	.	4cc	-z’o	4ee	ar-
.	.	4a	ar-	.	.	4cc	ar-	4cc	-te
.	.	4f	-te	.	.	4a	-te	8cc	per
.	.	.	.	.	.	.	.	8a	fug-
.	.	[4f	per	.	.	8a	per	[4cc	-gir
.	.	.	.	.	.	8g	fug-	.	.
=12	=12	=12	=12	=12	=12	=12	=12	=12	=12
0r	.	8f]	.	0r	.	4.a	-gir	8cc]	.
.	.	8e	fug-	.	.	.	.	8a	li
.	.	8f	-gir	.	.	.	.	2dd	gio-
.	.	8d	li	.	.	8f	li	.	.
.	.	2e	gio-	.	.	2g	gio-	.	.
.	.	.	.	.	.	.	.	4cc#X	.
.	.	4d	-va,	.	.	4f#X	-va,	4dd	-va,
.	.	8g	per	.	.	8b	per	8dd	per
.	.	8e	fug-	.	.	8cc	fug-	8ee	fug-
.	.	4g	-gir	.	.	8b	-gir	4dd	-gir
.	.	.	.	.	.	8b	li	.	.
.	.	4c	li	.	.	[4a	gio-	4ccnXi	li
=13	=13	=13	=13	=13	=13	=13	=13	=13	=13
2r	.	2e	gio-	2r	.	4a]	.	2b	gio-
.	.	.	.	.	.	4g#X	.	.	.
4r	.	4A	-va,	4r	.	4a	-va,	4a	-va,
8c	per	8e	per	8g	per	8cc	per	8ee	per
8A	fug-	8c	fug-	8a	fug-	8cc	fug-	8ff	fug-
4c	-gir	8e	-gir	4g	-gir	4cc	-gir	8ee	-gir
.	.	8e	li	.	.	.	.	8ee	li
4F	li	4.a	gio-	4f	li	4a	li	2dd	gio-
2A	gio-	.	.	2e	gio-	2a	gio-	.	.
.	.	16gL	.	.	.	.	.	.	.
.	.	16fJ	.	.	.	.	.	.	.
.	.	4e	.	.	.	.	.	4cc#X	.
=14	=14	=14	=14	=14	=14	=14	=14	=14	=14
0D	-va.	0f#X	-va.	0d	-va.	0a	-va.	0dd	-va.
=||15	=||15	=||15	=||15	=||15	=||15	=||15	=||15	=||15	=||15
!!LO:TX:a:t=Seconda parte.
0r	.	2r	.	0r	.	2a	Né	0r	.
.	.	4r	.	.	.	2cc	tien	.	.
.	.	4e	Né	.	.	.	.	.	.
.	.	2f	tien	.	.	4a	fa-	.	.
.	.	.	.	.	.	8f	-ce o	.	.
.	.	.	.	.	.	8a	sa-	.	.
.	.	4e	fa-	.	.	2g	-et-	.	.
.	.	8c	-ce o	.	.	.	.	.	.
.	.	8e	sa-	.	.	.	.	.	.
=16	=16	=16	=16	=16	=16	=16	=16	=16	=16
0r	.	2d	-et-	4r	.	4f	-ta,	2r	.
.	.	.	.	4a	Né	4d	Né	.	.
.	.	2A	-ta,	2cc	tien	2e	tien	4r	.
.	.	.	.	.	.	.	.	4ee	Né
.	.	1r	.	4b	fa-	2r	.	2gg	tien
.	.	.	.	8g	-ce o	.	.	.	.
.	.	.	.	8b	sa-	.	.	.	.
.	.	.	.	8aL	-et-	4cc	fa-	4ee	fa-
.	.	.	.	8bJ	.	.	.	.	.
.	.	.	.	[4cc	.	8a	-ce o	8cc	-ce o
.	.	.	.	.	.	8cc	sa-	8ee	sa-
=17	=17	=17	=17	=17	=17	=17	=17	=17	=17
2r	.	1r	.	4cc]	.	2dd	-et-	2ff	-et-
.	.	.	.	4b	.	.	.	.	.
4r	.	.	.	4cc	-ta,	2cc	-ta,	2ee	-ta
4E	Né	.	.	4g	Né	.	.	.	.
2G	tien	4r	.	2b	tien	4r	.	1r	.
.	.	4B	Né	.	.	4d	Né	.	.
4F	fa-	2d	tien	4a	fa-	2f	tien	.	.
8D	-ce o	.	.	8f	-ce o	.	.	.	.
8F	sa-	.	.	8a	sa-	.	.	.	.
=18	=18	=18	=18	=18	=18	=18	=18	=18	=18
2E	-et-	4B	fa-	8gL	-et-	4g	fa-	1r	.
.	.	.	.	8a	.	.	.	.	.
.	.	8G	-ce o	8b	.	8e	-ce o	.	.
.	.	8c	sa-	8gJ	.	8g	sa-	.	.
2D	-ta	2A	-et-	2a	.	2f#X	-et-	.	.
1r	.	2G	-ta	1b	-ta	4g	-ta	2r	.
.	.	.	.	.	.	2dd	Che	.	.
.	.	[2g	Che	.	.	.	.	4r	.
.	.	.	.	.	.	4g	da	[4dd	Che
=19	=19	=19	=19	=19	=19	=19	=19	=19	=19
0r	.	4g]	.	4r	.	4b	me	4dd]	.
.	.	4c	da	2g	Che	2cc	la	4ee	da
.	.	2e	me	.	.	.	.	2gg	me
.	.	.	.	4c	da	4cc	di-	.	.
.	.	4B	la	2g	me	4dd	-fen-	4dd	la
.	.	4c	di-	.	.	2cc	.	4ee	di-
.	.	2d	-fen-	4f	la	.	.	[2ff	-fen-
.	.	.	.	4g	di-	4b	.	.	.
=20	=20	=20	=20	=20	=20	=20	=20	=20	=20
1r	.	1c	-da,	2a	-fen-	1cc	-da,	2ff]	.
.	.	.	.	4g	-da,	.	.	2ee	-da,
.	.	.	.	2g	Che	.	.	.	.
2r	.	2.c	Che	.	.	2r	.	2r	.
.	.	.	.	4c	da	.	.	.	.
4r	.	.	.	4e	me	4cc	Che	[2gg	Che
[4G	Che	4e	da	8B	la	4g	da	.	.
.	.	.	.	8c	di-	.	.	.	.
=21	=21	=21	=21	=21	=21	=21	=21	=21	=21
4G]	.	2g	me,	2d	-fen-	4b	me,	4gg]	.
4B	da	.	.	.	.	2g	Che	4dd	da
2c	me	4e	Che	2g	-da.	.	.	2ee	me
.	.	4c	da	.	.	4e	da	.	.
4G	la	2e	me	1r	.	2g	me	4b	la
4A	di-	.	.	.	.	.	.	4cc	di-
2B-X	-fen-	4d	la	.	.	4f	la	[2dd	-fen-
.	.	4e	di-	.	.	4g	di-	.	.
=22	=22	=22	=22	=22	=22	=22	=22	=22	=22
1A	-da.	4f	-fen-	1r	.	1a	-fen-	4dd]	.
.	.	8eL	.	.	.	.	.	8cc#XL	.
.	.	8dJ	.	.	.	.	.	8bJ	.
.	.	2e	.	.	.	.	.	2cc#X	.
4r	.	2d	-da.	4r	.	4a	-da.	4dd	-da.
4D	Giu-	.	.	4a	Giu-	4dd	Giu-	4ff	Giu-
2F	-st'è,	4A	Giu-	2a	-st'è,	2cc	-st'è,	2ff	-st'è,
.	.	4c	-st'è,	.	.	.	.	.	.
=23	=23	=23	=23	=23	=23	=23	=23	=23	=23
4r	.	4r	.	4r	.	4r	.	4r	.
4A	Giu-	4c	Giu-	4f	Giu-	4a	Giu-	4cc	Giu-
4A	-st'è	4c	-st'è	4e	-st'è	4cc	-st'è	4ee	-st'è
4G	ben	4g	ben	4e	ben	4b	ben	4ee	ben
4F	ch’io	4c	ch’io	4a	ch’io	4cc	ch’io	4ff	ch’io
4C	ne	4e	ne	4g	ne	4cc	ne	4ee	ne
2D	pren-	2A	pren-	2f	pren-	2a	pren-	2dd	pren-
=24	=24	=24	=24	=24	=24	=24	=24	=24	=24
4AA	-da,	4A	-da,	4e	-da,	4a	-da,	4cc	-da,
4F	A-	4A	A-	4d	A-	4a	A-	4dd	A-
2E	-mor,	2B	-mor,	2e	-mor,	2g#X	-mor,	2b	-mor,
2r	.	4r	.	2r	.	1r	.	4r	.
.	.	4.e	qual-	.	.	.	.	4.gg	qual-
4r	.	.	.	8e	qual-	.	.	.	.
.	.	8d	-che	8f	-che	.	.	8ff	-che
[4c	qual-	4c	ven-	4g	ven-	.	.	4ee	ven-
=25	=25	=25	=25	=25	=25	=25	=25	=25	=25
8c]	.	4d	-det-	2d	-det-	8a	qual-	2ff	-det-
8B	-che	.	.	.	.	8b	-che	.	.
4A	ven-	8eL	.	.	.	4cc	ven-	.	.
.	.	8fJ	.	.	.	.	.	.	.
2G	-det-	2g	.	2d	-ta,	2b	-det-	2dd	-ta,
2c	-ta,	2e	-ta,	2r	.	1cc	-ta,	1r	.
4A	E	4c	E	4e	E	.	.	.	.
4A	se	4c	se	4e	se	.	.	.	.
=26	=26	=26	=26	=26	=26	=26	=26	=26	=26
4A	pia-	4c	pia-	4f	pia-	2r	.	0r	.
8G	-ghe	8B	-ghe	8e	-ghe	.	.	.	.
8F	mi	8A	mi	8d	mi	.	.	.	.
2E	fé	2B	fé,	2g	fé,	4b	E	.	.
.	.	.	.	.	.	4b	se	.	.
1r	.	4e	E	4g	E	2.cc	pia-	.	.
.	.	4e	se	4g	se	.	.	.	.
.	.	4e	pia-	4g	pia-	.	.	.	.
.	.	8d	-ghe	8f	-ghe	8b	-ghe	.	.
.	.	8c	mi	8e	mi	8a	mi	.	.
=27	=27	=27	=27	=27	=27	=27	=27	=27	=27
1r	.	2B	fé	2g	fé	2dd	fé	1r	.
.	.	2.c	ba-	2.e	ba-	2.g	ba-	.	.
1c	ba-	.	.	.	.	.	.	1cc	ba-
.	.	4c	-ci	4e	-ci	4g	-ci	.	.
.	.	2d	le	2f	le	2f	le	.	.
=28	=28	=28	=28	=28	=28	=28	=28	=28	=28
2c	-ci	2e	ren-	1g	ren-	1e	ren-	2cc	-ci
2B-X	le	2.d	.	.	.	.	.	2dd	le
2A	ren-	.	.	1e	-da,	1e	-da,	2ee	ren-
.	.	8c#XL	.	.	.	.	.	.	.
.	.	8BJ	.	.	.	.	.	.	.
2A	-da,	2c#X	.	.	.	.	.	2ee	-da,
=29	=29	=29	=29	=29	=29	=29	=29	=29	=29
4r	.	2d	-da,	4r	.	4r	.	4r	.
4D	Giu-	.	.	4a	Giu-	4dd	Giu-	4ff	Giu-
2F	-st'è,	4A	Giu-	2a	-st'è,	2cc	-st'è,	2ff	-st'è,
.	.	4c	-st'è,	.	.	.	.	.	.
4r	.	4r	.	4r	.	4r	.	4r	.
4A	Giu-	4c	Giu-	4f	Giu-	4a	Giu-	4cc	Giu-
4A	-st'è	4c	-st'è	4e	-st'è	4cc	-st'è	4ee	-st'è
4G	ben	4g	ben	4e	ben	4b	ben	4ee	ben
=30	=30	=30	=30	=30	=30	=30	=30	=30	=30
4F	ch’io	4c	ch’io	4a	ch’io	4cc	ch’io	4ff	ch’io
4C	ne	4e	ne	4g	ne	4cc	ne	4ee	ne
2D	pren-	2A	pren-	2f	pren-	2a	pren-	2dd	pren-
4AA	-da,	4A	-da,	4e	-da,	4a	-da,	4cc	-da,
4F	A-	4A	A-	4d	A-	4a	A-	4dd	A-
2E	-mor,	2B	-mor,	2e	-mor,	2g#X	-mor,	2b	-mor,
=31	=31	=31	=31	=31	=31	=31	=31	=31	=31
2r	.	4r	.	2r	.	1r	.	4r	.
.	.	4.e	qual-	.	.	.	.	4.gg	qual-
4r	.	.	.	8e	qual-	.	.	.	.
.	.	8d	-che	8f	-che	.	.	8ff	-che
4.c	qual-	4c	ven-	4g	ven-	.	.	4ee	ven-
.	.	4d	-det-	2d	-det-	8a	qual-	2ff	-det-
8B	-che	.	.	.	.	8b	-che	.	.
4A	ven-	8eL	.	.	.	4cc	ven-	.	.
.	.	8fJ	.	.	.	.	.	.	.
2G	-det-	2g	.	2d	-ta,	2b	-det-	2dd	-ta,
=32	=32	=32	=32	=32	=32	=32	=32	=32	=32
2c	-ta,	2e	-ta,	2r	.	1cc	-ta,	0r	.
4A	E	4c	E	4e	E	.	.	.	.
4A	se	4c	se	4e	se	.	.	.	.
4A	pia-	4c	pia-	4f	pia-	2r	.	.	.
8G	-ghe	8B	-ghe	8e	-ghe	.	.	.	.
8F	mi	8A	mi	8d	mi	.	.	.	.
2E	fé	2B	fé,	2g	fé,	4b	E	.	.
.	.	.	.	.	.	4b	se	.	.
=33	=33	=33	=33	=33	=33	=33	=33	=33	=33
0r	.	4e	E	4g	E	2.cc	pia-	0r	.
.	.	4e	se	4g	se	.	.	.	.
.	.	4e	pia-	4g	pia-	.	.	.	.
.	.	8d	-ghe	8f	-ghe	8b	-ghe	.	.
.	.	8c	mi	8e	mi	8a	mi	.	.
.	.	2B	fé	2g	fé	2dd	fé	.	.
.	.	[2c	ba-	[2e	ba-	[2g	ba-	.	.
=34	=34	=34	=34	=34	=34	=34	=34	=34	=34
1c	ba-	4c]	.	4e]	.	4g]	.	1cc	ba-
.	.	4c	-ci	4e	-ci	4g	-ci	.	.
.	.	2d	le	2f	le	2f	le	.	.
2c	-ci	2e	ren-	1g	ren-	1e	ren-	2cc	-ci
2B-X	le	[2d	.	.	.	.	.	2dd	le
=35	=35	=35	=35	=35	=35	=35	=35	=35	=35
2A	ren-	4d]	.	1e	-da,	1e	-da,	2ee	ren-
.	.	8c#iL	.	.	.	.	.	.	.
.	.	8BJ	.	.	.	.	.	.	.
2A	-da,	2c#X	.	.	.	.	.	2ee	-da,
1r	.	2d	-da,	2r	.	2r	.	1r	.
.	.	4d	E	4f	E	4a	E	.	.
.	.	4d	se	4f	se	4a	se	.	.
=36	=36	=36	=36	=36	=36	=36	=36	=36	=36
0r	.	4d	pia-	4f	pia-	4b-X	pia-	2r	.
.	.	8c	-ghe	8e	-ghe	8a	-ghe	.	.
.	.	8B	mi	8d	mi	8g	mi	.	.
.	.	2A	fé,	2e	fé	2cc	fé,	4ee	E
.	.	.	.	.	.	.	.	4ee	se
.	.	4a	E	1r	.	4cc	E	2.ff	pia-
.	.	4a	se	.	.	4cc	se	.	.
.	.	4a	pia-	.	.	4cc	pia-	.	.
.	.	8g	-ghe	.	.	8bnXi	-ghe	8ee	-ghe
.	.	8f	mi	.	.	8a	mi	8dd	mi
=37	=37	=37	=37	=37	=37	=37	=37	=37	=37
2r	.	1.e	fé	2r	.	2b	fé	2gg	fé
2.C	ba-	.	.	2.g	ba-	2.cc	ba-	2r	.
.	.	.	.	.	.	.	.	1gg	ba-
4C	-ci	.	.	4g	-ci	4cc	-ci	.	.
2D	le	[2d	ba-	2f	le	[2b	le	.	.
=38	=38	=38	=38	=38	=38	=38	=38	=38	=38
0E	ren-	4d]	.	0e	ren-	2b]	.	2gg	-ci
.	.	4d	-ci	.	.	.	.	.	.
.	.	2c	le	.	.	2.a	ren-	2ff	le
.	.	1B	ren-	.	.	.	.	1ee	ren-
.	.	.	.	.	.	8g#XL	.	.	.
.	.	.	.	.	.	8f#iJ	.	.	.
.	.	.	.	.	.	2g#X	.	.	.
=39	=39	=39	=39	=39	=39	=39	=39	=39	=39
0Al	-da.	0Al	-da.	0el	-da.	0al	-da.	0cc#Xl	-da.
==	==	==	==	==	==	==	==	==	==
*-	*-	*-	*-	*-	*-	*-	*-	*-	*-
!!!system-decoration: [*]
!!!YEM:	Carlo Gesualdo, “Non è questa la mano,” 1594 (Trm0047q; August 2018) Tasso in Music Project (http://www.tassomusic.org) Copyright 2016 Emiliano Ricciardi
!!!RDF**kern: i = editorial accidental
!!!RDF**kern: l = terminal long
!!!ENC: Emiliano Ricciardi
!!!END: 2018
!!!EED: Deutsch, Catherine
!!!EEV: 2018/09/18
!!!YEC: Copyright 2018 Emiliano Ricciardi, All Rights Reserved
!!!ONB: Translated from MusicXML on 2018/09/18 and edited by Craig Stuart Sapp
!!@@BEGIN:	VERSEDATA
!!@SOLERTI:	47
!!@CATALOGNUM:	Trm0047
!!@LAST_MODIFIED: 2020/07/12
!!@TITLE:		Non è questa la mano
!!@GENRE:		madrigale/ballata
!!@MANUSRC:	Amz, Brn, C, E<sub>1</sub>, F<sub>2</sub>, I<sub>3</sub>, M<sub>7</sub>, P<sub>4</sub>, Tr<sub>2</sub>, V<sub>8</sub>, V<sub>13/E1</sub>
!!@PRINTSRC:	8, 9, 11, 12, 13, 15, 20, 24, 29, 33, 67, 145
!!@@BEGIN:	VERSES
!!@ABOUTIT:	Ballando con la sua donna desidera di fare amorosa vendetta de la sua mano ch’egli teneva stretta.
!!@ABOUTEN:	Dancing with his lady, he desires to take amorous revenge on the hand he held tight.
!!@EDITOR:	Solerti, Angelo
!!@EDITION_TITLE: Le Rime di Torquato Tasso
!!@EDITION_LOC:	Bologna
!!@EDITION_PUB:	Romagnoli-Dall’Acqua
!!@EDITION_DATE:  1898-1902
!!@EDITION_VOL:	2
!!@EDITION_PAGE:  71
!!@TRANSLATOR:	Emiliano Ricciardi and Amyrose McCue Gill
!!@VERSE:
!!	Non è questa la mano
!!	Che tante e sì mortali
!!	Avventò nel mio cor fiammelle e strali?
!!	Ecco che pur si trova
!!	Fra le mie man ristretta
!!	Né forza od arte per fuggir le giova,
!!	Né tien face o saetta
!!	Che da me la difenda.
!!	Giusto è ben ch'io ne prenda,
!!	Amor, qualche vendetta,
!!	E se piaghe mi diè baci le renda.
!!@TVERSE:
!!	Is this not the hand
!!	That so many and truly fatal
!!	Flames and arrows hurled at my heart?
!!	Yet here it is, to be found
!!	Held fast between my hands,
!!	Neither strength nor craft can help it escape,
!!	Nor does it hold a torch or a spear
!!	To defend her against me.
!!	It is just that I take,
!!	Love, some kind of revenge,
!!	And if she gave me wounds, may I give her kisses.
!!@@END:		VERSES
!!@OTHER_CRIT_ED:   Torquato Tasso, <i>Rime d’amore (secondo il codice
!!		Chigiano L VIII 302)</i>, eds. Franco Gavazzeni and
!!		Vercingetorige Martignone, vol. 4 of <i>Edizione
!!		Nazionale delle opere di Torquato Tasso</i>
!!		(Alessandria: Edizioni Dell’Orso, 2004), 34.
!!@ATTRIBUTION_ABOUT:	Secure
!!		<br>
!!		Among other authoritative sources (see Literary
!!		Sources), this poem appears in the autograph Chigiano
!!		L.VIII.302 (Biblioteca Vaticana, Rome), compiled
!!		around 1584&ndash;85.
!!@DATING:	Before 1579
!!		<br>
!!		Although Solerti dates this poem to the early 1560s,
!!		there is no hard evidence to support this dating.
!!		The earliest written testimony of “Non è questa la
!!		mano” is Benedetto Pallavicino’s musical setting,
!!		published in 1579 (Trm0047a).
!!@DEDICATEE:	Bendidio, Lucrezia
!!@DEDICATEE_INFO:
!!		In the autograph Chigiano L.VIII.302 (Biblioteca
!!		Vaticana, Rome), this poem appears among those
!!		addressed to Tasso’s <i>primo amore</i> (first love),
!!		identified as the Ferrarese singer and noblewoman
!!		<a target="_new" href="http://www.treccani.it/enciclopedia/lucrezia-bendidio_%28Dizionario-Biografico%29">Lucrezia Bendidio</a>
!!		(1547&ndash;after 1584). The poem itself, however, does not mention Lucrezia.
!!		As [Anthony Newcomb] {footnote: Anthony Newcomb, “The Ballata and the ‘Free’ Madrigal in
!!		the Second Half of the Sixteenth Century,” Journal
!!		of the American Musicological Society, vol. 63, no.
!!		3 (Fall 2010): 433&ndash;34.} has pointed out, this poem belongs to the
!!		hybrid genre of the ballata-madrigale.  More
!!		specifically, the opening tercet recalls the
!!		<i>ripresa</i> of a ballata, the central section
!!		the <i>piedi</i> (two pairs of <i>settenarii</i>
!!		separated by an <i>endecasillabo</i>), and the final
!!		tercet the <i>volta</i>. The poem is extremely rich
!!		of references to <i>topoi</i> that resonated with
!!		the culture of the time, such as courtly dance and
!!		the female hand–the latter is especially common in
!!		late sixteenth-century lyric poetry (see <i>Rime</i>
!!		315, 571, and 862). Counting 23 settings (see Musical
!!		Settings), “Non è questa la mano” is second only
!!		to “Ardi e gela a tua voglia” (<i>Rime</i> 418),
!!		whose musical fortune, however, is tied to that of
!!		Guarini’s <i>proposta</i> “Ardo sì, ma non t’amo.”
!!@@END:		VERSEDATA
!!@@BEGIN:	SETTING
!!@CATALOGNUM:	Trm0047q
!!@RIMETITLE:	Non è questa la mano
!!@SOLERTI:	47
!!@COMPOSER:	Gesualdo, Carlo
!!@PRINCEPSTITLE:	Il secondo libro de madrigali a cinque voci
!!@PRINCEPSLOC:	Ferrara
!!@NORMLOC:	Ferrara
!!@NORMPUB:	Baldini
!!@NORMPUBSHORT:	Baldini
!!@PRINCEPSPUB:	Baldini
!!@PRINCEPSYEAR:	1594 
!!@PRINCEPSRISM:	G 1725
!!@REPRINTS:	G1722, G1723, G1724
!!@OVOICES:	5
!!@EXTANTVOICES:	5
!!@PARTBOOKS:	
!!@EXTPARTBOOKS:	
!!@OCLEFS:	G2,C1,C2,C3,F3
!!@OMENSURATION:	C
!!@OKEYSIG:	-
!!@FINAL:	(D)A
!!@TIMPEDITOR:	Deutsch, Catherine
!!@NOTE:		
!!@@END:		SETTING
